X:1
T:the Glenburnie Rant
T:the Glenburnie Rant
T:Fight About the Fireside
T:Neil Gow
C:Neil Gow
L:1/8
M:2/2
K:Emin
V:1 treble 
V:1
 B2 |"Em" E2 EF E2 E2 |"D" DEFG AFDF |"Em" E2 EF E2 B2 |"B7" efe^d"Em" e2 :| B2 |"Em" e2 ef g2 fe | %7
"D" defg afdf |"C" e2 ef g2 fe |"B7" efe^d"Em" e2 || B2 |"Em" e2 ef g2 fe |"D" defg afdf | %13
"G" g2 bg"D" f2 af |"B7" efe^d"Em" e2 |] %15

